src/assets/voice_message_icons/delete-message.svg

<svg fill="none" height="24" viewBox="0 0 24 24" width="24" xmlns="http://www.w3.org/2000/svg"><path clip-rule="evenodd" d="m10.7063 1.38516v1.35387h-3.31116v-1.35387zm-4.2898 2.78374c-.00959-.00425-.01906-.00872-.02842-.0134h-2.20209v12.4586h9.71371v-12.4586h-6.8863c-.00936.00468-.01883.00915-.02841.0134-.08946.03977-.18631.06031-.28425.06031s-.19478-.02054-.28424-.06031zm-.41016-3.480231v2.050361h-2.51875c-.02694-.00159-.05388-.00158-.08069 0h-2.69681c-.188328 0-.368942.07462-.50211.20744-.1331673.13282-.20798.31296-.20798.50079 0 .18784.0748127.36798.20798.5008.133168.13282.313782.20744.50211.20744h2.05572v13.1551c-.00009.0932.01875.1854.0554.271.03664.0857.09033.163.15781.2274.06747.0644.14734.1144.23477.1472.08743.0327.1806.0473.27388.0431h11.11033c.0934.0001.1858-.0187.2717-.0552.0859-.0366.1635-.0901.228-.1574s.1147-.147.1475-.2342.0475-.1801.0433-.2732v-13.1238h2.0871v-.03131c.1715-.0182.3301-.09901.4454-.22688.1152-.12786.179-.29374.179-.4657s-.0638-.33783-.179-.4657c-.1153-.12787-.2739-.20868-.4454-.22688h-2.7622-.0149-2.5034v-2.050361c-.0021-.183363-.0766-.358515-.2073-.487445-.1308-.1289304-.3072-.20123557-.4911-.201224h-4.70773c-.18112.00404966-.35358.0781473-.48095.206646-.12737.128498-.19969.301339-.20168.482023zm-.0071 13.798431c.08429.0351.17472.0532.26606.0532.18521 0 .36283-.0734.49379-.204s.20453-.3078.20453-.4925v-6.91798c.01037-.09714.00013-.19536-.03004-.2883-.03017-.09293-.07961-.17849-.14509-.25113-.06549-.07264-.14556-.13072-.23502-.17048-.08946-.03977-.18631-.06031-.28425-.06031s-.19478.02054-.28424.06031c-.08946.03976-.16953.09784-.23502.17048s-.11492.1582-.14509.25113c-.03018.09294-.04041.19116-.03004.2883v6.91798c-.00104.0911.01605.1815.05029.266.03423.0844.08493.1613.14915.226.06422.0648.14068.1162.22497.1513zm3.04359.0532c-.09133 0-.18177-.018-.26605-.0531-.08429-.0351-.16076-.0866-.22498-.1513-.06422-.0648-.11492-.1417-.14915-.2261-.03424-.0845-.05133-.1749-.05029-.266v-6.91796c0-.18265.07275-.35781.20223-.48696.12949-.12915.30512-.20171.48824-.20171.18313 0 .35875.07256.48824.20171s.20224.30431.20224.48696v6.91796c.00104.0911-.01606.1815-.05029.266-.03424.0844-.08493.1613-.14915.2261-.06422.0647-.14069.1162-.22498.1513s-.17472.0531-.26606.0531zm2.28387-.204c.1309.1306.3086.204.4938.204.0913 0 .1817-.0181.266-.0532s.1608-.0865.225-.1513c.0642-.0647.1149-.1416.1491-.2261.0343-.0844.0514-.1748.0503-.2659v-6.91798c.0104-.09714.0002-.19536-.03-.2883-.0302-.09293-.0796-.17849-.1451-.25113s-.1456-.13072-.235-.17048c-.0895-.03977-.1863-.06031-.2843-.06031-.0979 0-.1948.02054-.2842.06031-.0895.03976-.1695.09784-.235.17048s-.1149.1582-.1451.25113c-.0302.09294-.0404.19116-.0301.2883v6.91798c0 .1847.0736.3619.2046.4925z" fill="#abb2bd" fill-rule="evenodd" transform="translate(3 3)"/></svg>

<svg width="24" height="24" viewBox="0 0 24 24" fill="none" xmlns="http://www.w3.org/2000/svg">
<path transform="translate(3, 3)" id="Union" fill-rule="evenodd" clip-rule="evenodd" d="M10.7063 1.38516V2.73903H7.39514V1.38516H10.7063ZM6.4165 4.1689C6.40691 4.16465 6.39744 4.16018 6.38808 4.1555H4.18599V16.6141H13.8997V4.1555H7.0134C7.00404 4.16018 6.99457 4.16465 6.98499 4.1689C6.89553 4.20867 6.79868 4.22921 6.70074 4.22921C6.6028 4.22921 6.50596 4.20867 6.4165 4.1689ZM6.00634 0.688669V2.73903H3.48759C3.46065 2.73744 3.43371 2.73745 3.4069 2.73903H0.71009C0.521762 2.73903 0.341148 2.81365 0.20798 2.94647C0.0748127 3.07929 0 3.25943 0 3.44726C0 3.6351 0.0748127 3.81524 0.20798 3.94806C0.341148 4.08088 0.521762 4.1555 0.71009 4.1555H2.76581V17.3106C2.76572 17.4038 2.78456 17.496 2.82121 17.5816C2.85785 17.6673 2.91154 17.7446 2.97902 17.809C3.04649 17.8734 3.12636 17.9234 3.21379 17.9562C3.30122 17.9889 3.39439 18.0035 3.48767 17.9993H14.598C14.6914 17.9994 14.7838 17.9806 14.8697 17.9441C14.9556 17.9075 15.0332 17.854 15.0977 17.7867C15.1622 17.7194 15.2124 17.6397 15.2452 17.5525C15.278 17.4653 15.2927 17.3724 15.2885 17.2793V4.1555H17.3756V4.12419C17.5471 4.10599 17.7057 4.02518 17.821 3.89731C17.9362 3.76945 18 3.60357 18 3.43161C18 3.25965 17.9362 3.09378 17.821 2.96591C17.7057 2.83804 17.5471 2.75723 17.3756 2.73903H14.6134H14.5985H12.0951V0.688669C12.093 0.505306 12.0185 0.330154 11.8878 0.201224C11.757 0.0722936 11.5806 -1.15728e-05 11.3967 1.38932e-09H6.68897C6.50785 0.00404966 6.33539 0.0781473 6.20802 0.206646C6.08065 0.335144 6.00833 0.507985 6.00634 0.688669ZM5.99924 14.4871C6.08353 14.5222 6.17396 14.5403 6.2653 14.5403C6.45051 14.5403 6.62813 14.4669 6.75909 14.3363C6.89005 14.2057 6.96362 14.0285 6.96362 13.8438V6.92582C6.97399 6.82868 6.96375 6.73046 6.93358 6.63752C6.90341 6.54459 6.85397 6.45903 6.78849 6.38639C6.723 6.31375 6.64293 6.25567 6.55347 6.21591C6.46401 6.17614 6.36716 6.1556 6.26922 6.1556C6.17128 6.1556 6.07444 6.17614 5.98498 6.21591C5.89552 6.25567 5.81545 6.31375 5.74996 6.38639C5.68447 6.45903 5.63504 6.54459 5.60487 6.63752C5.57469 6.73046 5.56446 6.82868 5.57483 6.92582V13.8438C5.57379 13.9349 5.59088 14.0253 5.62512 14.1098C5.65935 14.1942 5.71005 14.2711 5.77427 14.3358C5.83849 14.4006 5.91495 14.452 5.99924 14.4871ZM9.04283 14.5403C8.9515 14.5403 8.86106 14.5223 8.77678 14.4872C8.69249 14.4521 8.61602 14.4006 8.5518 14.3359C8.48758 14.2711 8.43688 14.1942 8.40265 14.1098C8.36841 14.0253 8.35132 13.9349 8.35236 13.8438V6.92584C8.35236 6.74319 8.42511 6.56803 8.55459 6.43888C8.68408 6.30973 8.85971 6.23717 9.04283 6.23717C9.22596 6.23717 9.40158 6.30973 9.53107 6.43888C9.66056 6.56803 9.73331 6.74319 9.73331 6.92584V13.8438C9.73435 13.9349 9.71725 14.0253 9.68302 14.1098C9.64878 14.1942 9.59809 14.2711 9.53387 14.3359C9.46965 14.4006 9.39318 14.4521 9.30889 14.4872C9.2246 14.5223 9.13417 14.5403 9.04283 14.5403ZM11.3267 14.3363C11.4576 14.4669 11.6353 14.5403 11.8205 14.5403C11.9118 14.5403 12.0022 14.5222 12.0865 14.4871C12.1708 14.452 12.2473 14.4006 12.3115 14.3358C12.3757 14.2711 12.4264 14.1942 12.4606 14.1097C12.4949 14.0253 12.512 13.9349 12.5109 13.8438V6.92582C12.5213 6.82868 12.5111 6.73046 12.4809 6.63752C12.4507 6.54459 12.4013 6.45903 12.3358 6.38639C12.2703 6.31375 12.1902 6.25567 12.1008 6.21591C12.0113 6.17614 11.9145 6.1556 11.8165 6.1556C11.7186 6.1556 11.6217 6.17614 11.5323 6.21591C11.4428 6.25567 11.3628 6.31375 11.2973 6.38639C11.2318 6.45903 11.1824 6.54459 11.1522 6.63752C11.122 6.73046 11.1118 6.82868 11.1221 6.92582V13.8438C11.1221 14.0285 11.1957 14.2057 11.3267 14.3363Z" fill="#ABB2BD"/>
</svg>
